src/assets/img/icons/duotone-icons/Layout/Layout-top-panel-5.svg

<?xml version="1.0" encoding="UTF-8"?>
<svg width="24px" height="24px" viewBox="0 0 24 24" version="1.1" xmlns="http://www.w3.org/2000/svg" xmlns:xlink="http://www.w3.org/1999/xlink">
    <!-- Generator: Sketch 52.2 (67145) - http://www.bohemiancoding.com/sketch -->
    <title>Stockholm-icons / Layout / Layout-top-panel-5</title>
    <desc>Created with Sketch.</desc>
    <g id="Stockholm-icons-/-Layout-/-Layout-top-panel-5" stroke="none" stroke-width="1" fill="none" fill-rule="evenodd">
        <rect id="bound" x="0" y="0" width="24" height="24"></rect>
        <path d="M3,4 L20,4 C20.5522847,4 21,4.44771525 21,5 L21,7 C21,7.55228475 20.5522847,8 20,8 L3,8 C2.44771525,8 2,7.55228475 2,7 L2,5 C2,4.44771525 2.44771525,4 3,4 Z M10,10 L20,10 C20.5522847,10 21,10.4477153 21,11 L21,13 C21,13.5522847 20.5522847,14 20,14 L10,14 C9.44771525,14 9,13.5522847 9,13 L9,11 C9,10.4477153 9.44771525,10 10,10 Z M10,16 L20,16 C20.5522847,16 21,16.4477153 21,17 L21,19 C21,19.5522847 20.5522847,20 20,20 L10,20 C9.44771525,20 9,19.5522847 9,19 L9,17 C9,16.4477153 9.44771525,16 10,16 Z" id="Combined-Shape" fill="#335EEA"></path>
        <rect id="Rectangle-7-Copy-2" fill="#335EEA" opacity="0.3" x="2" y="10" width="5" height="10" rx="1"></rect>
    </g>
</svg>

<svg width="24" height="24" viewBox="0 0 24 24" xmlns="http://www.w3.org/2000/svg"><g fill="none" fill-rule="evenodd"><path d="M0 0h24v24H0z"/><path d="M3 4h17a1 1 0 011 1v2a1 1 0 01-1 1H3a1 1 0 01-1-1V5a1 1 0 011-1zm7 6h10a1 1 0 011 1v2a1 1 0 01-1 1H10a1 1 0 01-1-1v-2a1 1 0 011-1zm0 6h10a1 1 0 011 1v2a1 1 0 01-1 1H10a1 1 0 01-1-1v-2a1 1 0 011-1z" fill="#335EEA"/><rect fill="#335EEA" opacity=".3" x="2" y="10" width="5" height="10" rx="1"/></g></svg>
